X:1819
T:Bourree
R:Bourree
A:Massif Central
O:France
M:3/8
L:1/16
Q:1/4=115
K:C
GAB|c2e2de|c2e2de|f4e2|decGAB|c2e2de|c2e2de|ded2B2|
B3GAB|c2e2de|c2e2de|f4e2|decGAB|c2e2de|c2e2de|ded2B2|c4G2|
ABcdcA|d2c2B2|ABc2G2|ABcdcA|d2c2B2|cde2 G2|
ABcdcA|d2c2B2|ABc2G2|ABcdcA|d2c2B2|c6 ||


